!!!!SEGMENT: pl-kk--kk-i-388--005_anonim--credo-no-5.krn
!!!cenid: 18xx:1402
!!!COM: Anonim
!!!COM-rismid: pe30004985
!!!CDT:
!!!CNT:
!!!OTL: Credo No 5
!!!PDT:
!!!AGN: Sacred; Mass section
!!!SMS-siglum: PL-Kk
!!!SMS-shelfmark: Kk.I.388
!!!SMS-shelfwork: 005 W
!!!SMS-variant:
!!!SMS-altvar:
!!!NIFC-rismid: 1001140862
!!!URL-scan: http://repozytorium.nifc.pl/skany/pl-kk-nut--i-388
!!!ONB-nifc:
!!!AIN: 1 alto 1 bass 1 soprn 1 tenor
!!!key:
**kern	**text	**kern	**text	**kern	**text	**kern	**text
*part4	*part4	*part3	*part3	*part2	*part2	*part1	*part1
*staff4	*staff4	*staff3	*staff3	*staff2	*staff2	*staff1	*staff1
*Ibass	*	*Itenor	*	*Ialto	*	*Isoprn	*
*I"Basso.	*	*I"Tenore.	*	*I"Alto.	*	*I"Soprano.	*
*I'B	*	*I'T	*	*I'A	*	*I'S	*
*clefF4	*	*clefC4	*	*clefC3	*	*clefC1	*
*k[b-]	*	*k[b-]	*	*k[b-]	*	*k[b-]	*
*F:	*	*F:	*	*F:	*	*F:	*
*M2/2	*	*M2/2	*	*M2/2	*	*M2/2	*
*met(C.)	*	*met(c|)	*	*met(c|)	*	*met(c|)	*
=1	=1	=1	=1	=1	=1	=1	=1
*all\right	*	*all\right	*	*all\right	*	*all\right	*
!LO:TX:a:t=No 5ty Credo.	!	!LO:TX:a:t=No 5. Credo	!	!LO:TX:a:t=No 5. Credo.	!	!LO:TX:a:t=No 5.ty Credo.	!
4F\	Cre-	4F/	Cre-	4f\	Cre-	4f/	Cre-
4G\	.	4G/	.	4g\	.	4g/	.
4A\	-do	4A/	-do	4a\	-do	4a/	-do
4F\	in	4F/	in	4f\	in	4f/	in
=2	=2	=2	=2	=2	=2	=2	=2
4E\	u-	4E/	u-	4e\	u-	4e/	u-
4F\	-num	4F/	-num	4f\	-num	4f/	-num
4D\	De-	4D/	De-	4d\	De-	(4d/	De-
4E\	.	4E/	.	4e\	.	4e/)	.
=3	=3	=3	=3	=3	=3	=3	=3
*2\right	*	*2\right	*	*2\right	*	*	*
2D\	-um	2A\	-um	2f\	-um	2f/	-um,
*	*	*	*	*	*	*2\right	*
2C/	Pa-	2c\	Pa-	2e\	Pa-	2g\	Pa-
=4	=4	=4	=4	=4	=4	=4	=4
4.F\	-trem	4.c\	-trem	4.f\	-trem	4.a\	-trem
8F\	om-	8c\	om-	8f\	om-	8a\	om-
4E\	-ni-	4c\	-ni-	4g\	-ni-	4b-\	-ni-
4F\	-po-	4c\	-po-	4f\	-po-	4a\	-po-
=5	=5	=5	=5	=5	=5	=5	=5
2C/	-ten-	2c\	-ten-	2f\	-len-	2a\	-ten-
4C/	-tem	4c\	-tem	4e\	-tem	4g\	-tem
4C/	fac-	4G/	fac-	4e\	fac-	4cc\	fa-
!	!	!	!	!LO:LB:g=original	!	!	!
=6	=6	=6	=6	=6	=6	=6	=6
2D\	-to-	2F/	-to-	2f\	-to-	2cc\	-cto-
2E\	-rem	2c\	-rem	2g\	-rem	2b-\	-rem
!LO:LB:g=original	!	!LO:LB:g=original	!	!	!	!	!
=7	=7	=7	=7	=7	=7	=7	=7
2F\	ce-	2c\	ce-	2f\	ce-	2b-\	ce-
4D\	-li	4d\	-li	4f\	-li	4a\	-li
4D\	et	4d\	et	4f\	et	4a\	et
=8	=8	=8	=8	=8	=8	=8	=8
2BB-/	ter-	2d\	ter-	2f\	ter-	1g	ter-
2C/	.	2c\	.	2e\	.	.	.
=9	=9	=9	=9	=9	=9	=9	=9
2F\	-re,	2A\	-re,	2f\	-re,	2f/	-re,
2r	.	4B-\	vi-	4f\	vi-	4g\	vi-
.	.	4c\	-si-	4f\	-si-	4a\	-si-
=10	=10	=10	=10	=10	=10	=10	=10
4r	.	4.d\	-bi-	4.f\	-bi-	4.b-\	-bi-
2F\	vi-	.	.	.	.	.	.
.	.	8d\	-li-	8f\	-li-	8b-\	-li-
.	.	2c\	-um	2f\	-um	2a\	-um
4F\	-si-	.	.	.	.	.	.
=11	=11	=11	=11	=11	=11	=11	=11
4F\	-bi-	2.c\	om-	2.c\	om-	2.g\	om-
8E\	-li-	.	.	.	.	.	.
8D\	-um	.	.	.	.	.	.
4.E\	om-	.	.	.	.	.	.
.	.	4B-\	-ni-	4c\	-ni-	4g\	-ni-
8E\	-ni-	.	.	.	.	.	.
=12	=12	=12	=12	=12	=12	=12	=12
2F\	-um,	2A\	-um,	2c\	-um	2f/	-um,
4F\	et	4B-\	et	2r	.	4g\	et
4F\	in-	4c\	in-	.	.	4a\	in-
=13	=13	=13	=13	=13	=13	=13	=13
2F\	-vi-	2d\	-vi-	4r	.	2b-\	-vi-
.	.	.	.	2f\	et	.	.
2F\	-si-	2c\	-si-	.	.	2a\	-si-
.	.	.	.	4f\	in-	.	.
!	!	!LO:LB:g=original	!	!LO:LB:g=original	!	!LO:LB:g=original	!
=14	=14	=14	=14	=14	=14	=14	=14
2BB-/	-bi-	4c\	-bi-	4f\	-vi-	2.dd\	-bi-
.	.	8B-\L	.	4f\	-si-	.	.
.	.	8A\J	.	.	.	.	.
2C/	-li-	4.B-\	.	4f\	-bi-	.	.
.	.	.	.	4f\	-li-	4dd\	-li-
.	.	8B-\	-li-	.	.	.	.
!LO:LB:g=original	!	!	!	!	!	!	!
=15	=15	=15	=15	=15	=15	=15	=15
1F	-um,	1A	-um,	1f	-um,	1cc	-um,
=16	=16	=16	=16	=16	=16	=16	=16
4B-\	Cre-	4B-\	cre-	4b-\	cre-	4b-\	Cre-
4c\	.	4c\	.	4cc\	.	4cc\	.
4d\	-do	4d\	-do	4dd\	-do	4dd\	-do
4B-\	in	4B-\	in	4b-\	in	4b-\	in
=17	=17	=17	=17	=17	=17	=17	=17
4A\	u-	4A\	u-	4a\	u-	4a\	u-
4B-\	-num	4B-\	-num	4b-\	-num	4b-\	-num
4G\	Do-	4G/	Do-	4g\	Do-	4g\	Do-
4A\	-mi-	4A/	-mi-	4a\	-mi-	4a\	-mi-
=18	=18	=18	=18	=18	=18	=18	=18
2G\	-num	2B-\	-num	2d\	-num	2b-\	-num,
2F\	Je-	2A\	Je-	2f\	Je-	2cc\	Je-
=19	=19	=19	=19	=19	=19	=19	=19
2BB-/	.	4B-\	.	2.f\	.	4dd\	.
.	.	8A\L	-sum	.	.	8cc\L	.
.	.	8B-\J	.	.	.	8dd\J	.
4AA/	.	4c\	Chris-	.	.	4ee-X\	.
4BB-/	-sum	4B-\	.	4f\	-sum	4dd\	-sum
=20	=20	=20	=20	=20	=20	=20	=20
2F\	Chris-	2B-\	-tum,	2f\	Chri-	(2dd\	Chri-
4F\	-tum	4A\	fi-	4f\	.	4cc\)	.
4F\	Fi-	4A\	-li-	4c\	-stum	4ff\	-stum
!	!	!LO:LB:g=original	!	!	!	!LO:LB:g=original	!
=21	=21	=21	=21	=21	=21	=21	=21
2G\	.	2B-\	-um,	2B-/	fi-	2ff\	Fi-
4A\	-li-	2c\	De-	4f\	-li-	4ee-X\	-li-
4A\	-um	.	.	4f\	-um	4ee-\	-um
!	!	!	!	!LO:LB:g=original	!	!	!
=22	=22	=22	=22	=22	=22	=22	=22
4B-\	De-	4B-\	.	4f\	De-	4ee-X\	De-
4B-\	-i	4B-\	-i	4f\	-i	4ee-\	-i-
4G\	u-	4B-\	u-	4g\	u-	4dd\	-u-
4G\	-ni-	4B-\	-ni-	4g\	-ni-	4dd\	-ni-
!LO:LB:g=original	!	!	!	!	!	!	!
=23	=23	=23	=23	=23	=23	=23	=23
2E\	-ge-	2B-\	-ge-	2g\	-ge-	2.cc\	-ge-
2F\	-ni-	2A\	-ni-	2f\	-ni-	.	.
.	.	.	.	.	.	4cc\	-ni-
=24	=24	=24	=24	=24	=24	=24	=24
2BB-/	-tum.	2B-\	-tum,	2d\	-tum,	2b-\	-tum,
2r	.	[2d\	et	2r	.	[2dd\	et
=25	=25	=25	=25	=25	=25	=25	=25
4r	.	2d\]	.	4r	.	2.dd\]	.
2F\	et	.	.	2a\	Et	.	.
.	.	2d\	ex	.	.	.	.
4F\	ex	.	.	4a\	ex	4cc\	ex
=26	=26	=26	=26	=26	=26	=26	=26
2.G\	Pa-	2d\	Pa-	2g\	Pa-	2b-\	Pa-
.	.	2d\	-tre	2g\	-tre	2b-\	-tre
4F\	-tre	.	.	.	.	.	.
=27	=27	=27	=27	=27	=27	=27	=27
2En\	na-	2c\	na-	2g\	na-	2.cc\	na-
2E\	-tum	2c\	-tum	2g\	-tum	.	.
.	.	.	.	.	.	4b-\	-tum
=28	=28	=28	=28	=28	=28	=28	=28
2.F\	an-	2c\	an-	2f\	an-	2a\	an-
.	.	2c\	-te	2f\	-te	2a\	-te
4En\	-te	.	.	.	.	.	.
!	!	!LO:LB:g=original	!	!	!	!LO:LB:g=original	!
=29	=29	=29	=29	=29	=29	=29	=29
2D\	om-	2B-\	om-	2f\	om-	2.b-\	om-
4D\	-ni-	4B-\	-ni-	4f\	-ni-	.	.
4D\	-a	4B-\	-a	4f\	-a	4a\	-ni-
=30	=30	=30	=30	=30	=30	=30	=30
2.E\	se-	1B-	Se-	1en	se-	1g	-a
4D\	.	.	.	.	.	.	.
!	!	!	!	!LO:LB:g=original	!	!	!
=31	=31	=31	=31	=31	=31	=31	=31
!	!	!LO:TX:a:t=2	!	!	!	!	!
!	!	!LO:N:vis=0	!	!	!	!	!
2C#X/	.	0A	.	1en	-cu-	2.a\	se-
2C#/	-cu-	.	.	.	.	.	.
.	.	.	.	.	.	4g\	-cu-
=32	=32	=32	=32	=32	=32	=32	=32
2D\	-la,	.	.	2f\	-la,	2f/	-la,
2F\	se-	.	.	2f\	se-	2dd\	se-
!LO:LB:g=original	!	!	!	!	!	!	!
=33	=33	=33	=33	=33	=33	=33	=33
2.A\	.	2.A\	.	2.e\	.	4dd\	.
.	.	.	.	.	.	8cc#X\L	.
.	.	.	.	.	.	8bn\J	.
.	.	.	.	.	.	4.cc#\	.
4A\	-cu-	4A\	-cu-	4f\	-cu-	.	.
.	.	.	.	.	.	8dd\	-cu-
=34	=34	=34	=34	=34	=34	=34	=34
1D	-la,	2A\	-la,	2f\	-la,	2dd\	-la,
.	.	2r	.	2f\	De-	2dd\	De-
=35	=35	=35	=35	=35	=35	=35	=35
2r	.	1r	.	4f\	.	4dd\	.
.	.	.	.	4g\	.	4ee\	.
2D\	De-	.	.	4a\	.	4ff\	-um
.	.	.	.	4g\	.	4ee\	de
=36	=36	=36	=36	=36	=36	=36	=36
4D\	.	2r	.	4f\	.	1dd	De-
4E\	-um	.	.	4g\	.	.	.
4F\	.	2A\	De-	4a\	-um	.	.
4D\	de	.	.	4f\	de	.	.
=37	=37	=37	=37	=37	=37	=37	=37
1AA	De-	4A\	.	1e	De-	2dd\	.
.	.	4B-\	.	.	.	.	.
.	.	4A/	-um	.	.	2cc#X\	.
.	.	4G/	de	.	.	.	.
!	!	!	!	!	!	!LO:LB:g=original	!
=38	=38	=38	=38	=38	=38	=38	=38
2D\	-o,	4F/	De-	2f\	-o,	2dd\	-o,
.	.	8A/L	.	.	.	.	.
.	.	8G/J	.	.	.	.	.
2r	.	4F/	.	2f\	lu-	2dd\	lu-
.	.	4E/	.	.	.	.	.
!	!	!LO:LB:g=original	!	!	!	!	!
=39	=39	=39	=39	=39	=39	=39	=39
2r	.	2D/	-o,	4f\	-men	4dd\	.
.	.	.	.	4g\	.	4ee\	.
2D\	lu-	2r	.	4a\	de-	4ff\	-men
.	.	.	.	4g\	.	4ee\	de
!	!	!	!	!LO:LB:g=original	!	!	!
=40	=40	=40	=40	=40	=40	=40	=40
4D\	.	2r	.	4f\	-lu-	1dd	lu-
4E\	.	.	.	4g\	.	.	.
4F\	-men	2A\	lu-	4a\	-mi-	.	.
4D\	de	.	.	4f\	.	.	.
=41	=41	=41	=41	=41	=41	=41	=41
2.AA/	lu-	4A\	.	2e\	-ne	2dd\	.
.	.	4B-\	.	.	.	.	.
.	.	4A\	-men	2e\	de	2cc#X\	-mi-
4AA/	-mi-	4G/	de	.	.	.	.
=42	=42	=42	=42	=42	=42	=42	=42
1BB-	-ne	4F/	lu-	4d\	lu-	2dd\	-ne,
.	.	4E/	-mi-	4e\	.	.	.
.	.	4F/	-ne,	4f\	-mi	[2dd\	De-
.	.	4F#X/	de	4f#X\	De-	.	.
=43	=43	=43	=43	=43	=43	=43	=43
2BB-/	De-	4G/	De-	4g\	.	2dd\]	.
.	.	4F#X/	.	4f#X\	.	.	.
2BB-/	-um	4G/	.	4g\	-um	2dd\	-um
.	.	4G#X/	-um	4fn\	.	.	.
!LO:LB:g=original	!	!	!	!	!	!	!
=44	=44	=44	=44	=44	=44	=44	=44
2AA/	ve-	2A/	ve-	2e\	ve-	2dd\	ve-
4AA/	-rum	4A/	-rum	4e\	-rum	4cc#X\	-rum
4AA/	de	4Gn/	de	4e\	de	4cc#\	de
=45	=45	=45	=45	=45	=45	=45	=45
1BB-	De-	4F/	De-	4d\	De-	[1dd	De-
.	.	4E/	.	4e\	.	.	.
.	.	4F/	.	4f\	.	.	.
.	.	4F#X/	.	4f#X\	.	.	.
!	!	!LO:LB:g=original	!	!	!	!	!
=46	=46	=46	=46	=46	=46	=46	=46
1BB-	-o	4G/	.	4g\	.	2dd\]	.
.	.	4F#X/	.	4f#X\	.	.	.
.	.	4G/	.	4g\	.	2dd\	-o
.	.	4G#X/	-o	4fn\	-o	.	.
!	!	!	!	!LO:LB:g=original	!	!LO:LB:g=original	!
=47	=47	=47	=47	=47	=47	=47	=47
4C/	ve-	2Gn/	ve-	2.e-X\	ve-	2dd\	ve-
4BBn/	.	.	.	.	.	.	.
4C/	.	2G/	-ro	.	.	2ccn\	-ro,
4BB-X/	-ro	.	.	4en\	-ro	.	.
=48	=48	=48	=48	=48	=48	=48	=48
4.AA-X/	ge-	4.F/	ge-	4f\	ge-	4.cc\	ge-
.	.	.	.	4en\	-ni-	.	.
8AA-/	-ni-	8F/	-ni-	.	.	8cc\	-ni-
4AA-/	-rum	4F/	-tum	4f\	-tum	4cc\	-tum
4AAn/	non	4F/	non	4e-X\	non	4cc\	non
=49	=49	=49	=49	=49	=49	=49	=49
4BB-/	fac-	2F/	fac-	2d\	fa-	2cc\	fac-
4AA/	.	.	.	.	.	.	.
4BB-/	.	2F/	-tum	2d\	-ctum	2b-X\	-tum,
4AA-X/	-tum	.	.	.	.	.	.
=50	=50	=50	=50	=50	=50	=50	=50
4.GG/	con-	4.E-X/	con-	4e-X\	con-	4b-\	con-
.	.	.	.	4d\	-sub-	4b-\	-sub-
8GG/	-sub-	8E-/	-sub-	.	.	.	.
4GG/	-stan-	4E-/	-stan-	4e-\	-stan-	4b-\	-stan-
4GG/	-ti-	4E-/	-ti-	4d-X\	-ti-	4b-\	-ti-
=51	=51	=51	=51	=51	=51	=51	=51
2AA-X/	-a-	2E-X/	-a-	2c\	-a-	2b-\	-a-
2C/	-lem	2E-/	-lem	2c\	-lem	2a-X\	-lem
=52	=52	=52	=52	=52	=52	=52	=52
1E-X	Pa-	1E-X	Pa-	1B-	Pa-	2a-X\	Pa-
.	.	.	.	.	.	2g\	.
=53	=53	=53	=53	=53	=53	=53	=53
2AA-X/	-tri	2E-X/	-tri	2c\	-tri	2a-X\	-tri,
!	!	!LO:LB:g=original	!	!	!	!	!
2r	.	2c\	per	2r	.	(2a-\	per
!LO:LB:g=original	!	!	!	!	!	!LO:LB:g=original	!
=54	=54	=54	=54	=54	=54	=54	=54
2A-X\	per	4c\	.	2.a-X\	per	4a-X\	.
.	.	4d-X\	.	.	.	4b-\)	.
2A-\	quem	4e-X\	quem	.	.	4cc\	quem
.	.	4c\	.	4e-X\	quem	4a-\	.
!	!	!	!	!LO:LB:g=original	!	!	!
=55	=55	=55	=55	=55	=55	=55	=55
2A-X\	om-	4B-\	om-	4.f-X\	om-	4g\	om-
.	.	4c\	.	.	.	4a-X\	.
!	!	!	!	!LO:N:vis=4	!	!	!
.	.	.	.	8e-\	.	.	.
4A-\	-ni-	4d-X\	-ni-	4.d-X\	-ni-	4f\	-ni-
4A-\	-a	4B-\	-a	.	.	4g\	-a
.	.	.	.	8e-\	-a	.	.
=56	=56	=56	=56	=56	=56	=56	=56
4A-X\	fac-	4c\	fac-	4.e-X\	fac-	2a-X\	fa-
4B-\	.	4d-X\	.	.	.	.	.
.	.	.	.	8a-X\	-ta	.	.
4c\	-ta	4e-X\	-ta	4a-\	sunt	2a-\	-cta
4d-X\	sunt	4f\	sunt	4r	.	.	.
=57	=57	=57	=57	=57	=57	=57	=57
4.c\	pro[p]-	4.e-X\	prop-	2r	.	4a-X\	sunt,
.	.	.	.	.	.	4a-\	prop-
8d-X\	.	8f\	-ter	.	.	.	.
4c\	.	(4e-\	nos	4r	.	4a-\	-ter
4B-\	-ter	4d-X\)	.	4a-X\	et	8a-\	.
.	.	.	.	.	.	8a-\	nos
=58	=58	=58	=58	=58	=58	=58	=58
2A-X\	nos,	4.c\	ho-	2.a-X\	pro-	4.a-X\	ho-
.	.	8d-X\	-mi-	.	.	8b-\	-mi-
2A-\	et	4e-X\	-nes,	.	.	4cc\	-nes,
.	.	4c\	et	4e-X\	-pter	4a-\	et
!	!	!LO:LB:g=original	!	!	!	!	!
=59	=59	=59	=59	=59	=59	=59	=59
1A-X	pro-	4B-\	pro-	4f-X\	no-	4g\	prop-
.	.	4c\	.	4e-X\	.	4a-X\	-ter
.	.	4d-X\	-pter,	4.d-X\	-stram	4f/	no-
.	.	4B-\	no-	.	.	4g/	.
.	.	.	.	8e-\	sa-	.	.
!	!	!	!	!	!	!LO:LB:g=original	!
=60	=60	=60	=60	=60	=60	=60	=60
4A-X\	-pter	4c\	-stram	4.e-X\	-lu-	2a-X\	-stram
4B-\	.	4d-X\	.	.	.	.	.
.	.	.	.	8a-X\	.	.	.
4c\	no-	4e-X\	ſa-	4a-\	-tem	2a-\	Sa-
4d-X\	.	4f\	.	4r	.	.	.
!	!	!	!	!LO:LB:g=original	!	!	!
=61	=61	=61	=61	=61	=61	=61	=61
4.c\	-stram	4.e-X\	-lu-	2r	.	2a-X\	-lu-
8d-X\	.	8f\	.	.	.	.	.
4c\	sa-	4e-\	-tem	4r	.	4a-\	-tem
4B-\	.	4d-X\	des-	4e-X\	de-	4g\	de-
!LO:LB:g=original	!	!	!	!	!	!	!
=62	=62	=62	=62	=62	=62	=62	=62
4.A-X\	-lu-	4.c\	-cen-	4e-X\	-scen-	4a-X\	-scen-
.	.	.	.	8e-\	-dit	8a-\	-dit
8B-\	.	8d-X\	.	8r	.	8r	.
4A-\	-tem	4c\	-dit	4r	.	4r	.
4G\	de-	4B-\	de	4en\	des-	4cc\	de-
=63	=63	=63	=63	=63	=63	=63	=63
4.F\	-scen-	4.A-X\	ce-	4f\	-cen-	2cc\	-scen-
.	.	.	.	8f\	-dit	.	.
8G\	.	8B-\	.	8r	.	.	.
4F\	-dit	4A-\	-lis	4r	.	4cc\	-dit
4E-X\	de	4G/	de	4g\	de	4cc\	de
=64	=64	=64	=64	=64	=64	=64	=64
1D-X	ce-	1F	ce-	4a-X\	ce-	2cc\	ce-
.	.	.	.	4g\	.	.	.
.	.	.	.	4.f\	.	2bn\	.
.	.	.	.	8g\	.	.	.
=65	=65	=65	=65	=65	=65	=65	=65
0C	-lis.	0G	-lis.	0en	-lis,	0cc	-lis.
=66	=66	=66	=66	=66	=66	=66	=66
!LO:TX:b:t=66	!	!LO:TX:b:t=66	!	!LO:TX:b:t=66	!	!LO:TX:b:t=66	!
!	!	!	!	!LO:PB:g=original	!	!LO:PB:g=original	!
=67||	=67||	=67||	=67||	=67||	=67||	=67||	=67||
*k[b-e-a-d-]	*	*k[b-e-d-a-]	*	*k[b-e-a-d-]	*	*k[b-e-a-d-]	*
*A-:	*	*A-:	*	*A-:	*	*A-:	*
*M3/4	*	*M3/4	*	*M3/4	*	*M3/4	*
!	!	!LO:TX:a:t=P:problem=przy kluczu omyłkowo bemol f- zamiast d-	!	!LO:TX:a:t=P:problem=przy kluczu bemol g- zamiast a-	!	!LO:TX:a:t=P:problem=przy kluczu b- ee- a- dd-	!
!LO:TX:a:t=1.	!	!	!	!LO:TX:a:t=1.	!	!	!
2.r	.	4F/	Et	2.r	.	4f/	Et
.	.	8.F/L	in-	.	.	8.f/L	in-
.	.	16En/Jk	.	.	.	16en/Jk	.
.	.	8.F/L	-car-	.	.	8.f/L	-car-
.	.	16G/Jk	.	.	.	16g/Jk	.
=68	=68	=68	=68	=68	=68	=68	=68
4F\	Et	8.A-/	-na-	4f\	Et	8.a-/	-na-
.	.	16G/	-tus	.	.	16g/	-tus
8.F\L	in-	8.F/L	est	8.f\L	in-	8.f/L	est
16En\Jk	.	16G/Jk	.	16en\Jk	.	16g/Jk	.
8.F\L	-car-	8.A-\L	de	8.f\L	-car-	8.a-\L	de
16G\Jk	.	16B-\Jk	.	16g\Jk	.	16b-\Jk	.
=69	=69	=69	=69	=69	=69	=69	=69
8.A-\	-na-	4.c\	spi-	8.a-\	-na-	4.cc\	Spi-
16G\	-tus	.	.	16g\	-tus	.	.
8.F\L	est	.	.	8.f\L	est	.	.
.	.	8B-\	-ri-	.	.	8b-\	-ri-
16G\Jk	.	.	.	16g\Jk	.	.	.
8.A-\L	de	8.A-/L	-tu	8.a-\L	de	8.a-\L	-tu
16B-\Jk	.	16G/Jk	.	16b-\Jk	.	16g\Jk	.
!LO:LB:g=original	!	!	!	!	!	!	!
=70	=70	=70	=70	=70	=70	=70	=70
4.c\	Spi-	8.F/L	san-	4.cc\	spi-	8.f/L	san-
.	.	16En/Jk	.	.	.	16en/Jk	.
.	.	4G/	-cto,	.	.	4g\	-cto,
8B-\	.	.	.	8b-\	-ri-	.	.
8.A-\L	-ri-	4r	.	8.a-\L	-tu	4r	.
16G\Jk	-tu	.	.	16g\Jk	.	.	.
!	!	!LO:LB:g=original	!	!	!	!	!
=71	=71	=71	=71	=71	=71	=71	=71
8F\L	san-	4r	.	8.f\L	san-	4r	.
8En\J	.	.	.	.	.	.	.
.	.	.	.	16en\Jk	.	.	.
4G\	-cto,	8r	.	4g\	-cto	8r	.
.	.	8En/	ex	.	.	8e-/	ex
4r	.	8.G/L	.	4r	.	8.g\L	Ma-
.	.	16B-/Jk	ma-	.	.	16b-\Jk	.
!	!	!	!	!	!	!LO:LB:g=original	!
=72	=72	=72	=72	=72	=72	=72	=72
4r	.	8.B-\L	-ri-	4r	.	8.b-\L	-ri-
.	.	16A-\Jk	.	.	.	16a-\Jk	.
8r	.	4A-\	-a,	8r	.	8a-\	-a
8F\L	ex	.	.	8f\L	ex	8r	.
8A-\J	.	4r	.	8.a-\J	.	4r	.
8F\	Ma-	.	.	.	.	.	.
.	.	.	.	16f\	Ma-	.	.
!	!	!	!	!LO:LB:g=original	!	!	!
=73	=73	=73	=73	=73	=73	=73	=73
8.E-\	-ri-	4r	.	8.e-\	-ri-	4r	.
16D-X\	-a	.	.	16d-\	-a	.	.
4.D-\	Vir-	4.F/	vir-	4.f\	Vir-	4.b-\	Vir-
8D-\	-gi-	8F/	-gi-	8f\	-gi-	8bn\	-gi-
=74	=74	=74	=74	=74	=74	=74	=74
8C/	-ne	8G/	-ne	8en\	-ne,	8cc\	-ne
16r	.	16r	.	16r	.	16r	.
16BB-/	et	16B-/	et	16f\	et	16dd-\	et
8.C/	ho-	8.A-\	ho-	8.f\	ho-	8.cc\	ho-
16C/	-mo	16A-\	-mo	16f\	-mo	16cc\	-mo
8.C/	fac-	8.A-\	fac-	8.f\	fac-	8.cc\	fac-
16C/	-ctus	16B-\	-tus	16g\	-tus	16en/	-tus
=75	=75	=75	=75	=75	=75	=75	=75
2F\	est,	2A-\	est,	2f\	est,	2f/	est.
!LO:LB:g=original	!	!	!	!	!	!	!
8.D-X\	cru-	8.A-\	cru-	8.f\	cru-	8.f/	cru-
16D-\	-ci-	16A-\	-ci-	16f\	-ci-	16f/	-ci-
=76	=76	=76	=76	=76	=76	=76	=76
4.D-\	-fi-	4.A-\	-fi-	4.f\	-fi-	4.f/	-fi-
8D-\	-xus,	8A-\	-xus	8d-\	-xus	8f/	-xus
!	!	!LO:LB:g=original	!	!	!	!	!
8.C/	e-	8.A-\	e-	8.e-\	e-	8.g#X/	e-
16C/	-ti-	16A-\	-ti-	16e-\	-ti-	16g#/	-ti-
=77	=77	=77	=77	=77	=77	=77	=77
2D-X\	-am,	2A-\	-am,	2d-\	-am,	2f/	-am
!	!	!	!	!	!	!LO:LB:g=original	!
8.D-\	cru-	8.A-\	cru-	8.d-\	cru-	8.f/	cru-
16D-\	-ci-	16A-\	-ci-	16d-\	-ci-	16f/	-ci-
!	!	!	!	!LO:LB:g=original	!	!	!
=78	=78	=78	=78	=78	=78	=78	=78
4.D-\	-fi-	4.A-\	-fi-	4.d-\	-fi-	4.f/	-fi-
8D-\	-xus	8A-\	-xus	8d-\	-xus	8f/	-xus
8.C/	e-	8.A-\	e-	8.e-\	e-	8.g-X/	e-
16C/	-ti-	16A-\	-ti-	16e-\	-ti-	16g-/	-ti-
=79	=79	=79	=79	=79	=79	=79	=79
2D-X\	-am,	2A-\	-am,	2d-\	-am,	2f/	-am,
4C/	sub	4e-\	sub	8.e-\L	sub	4an\	sub
.	.	.	.	16f\Jk	.	.	.
=80	=80	=80	=80	=80	=80	=80	=80
8.BB-/	Pon-	8.d-\	Pon-	8.f\	Pon-	8.b-X\	Pon-
16BB-/	-ti-	16d-\	-ti-	16f\	-ti-	16b-\	-ti-
4BB-/	-o	4d-\	-o	4f\	-o	4b-\	-o
4D-\	Pi-	4F/	Pi-	4f\	Pi-	8b-\L	Pi-
.	.	.	.	.	.	8bn\J	.
=81	=81	=81	=81	=81	=81	=81	=81
4C/	-la-	4G/	-la-	8en\	-la-	4cc\	-la-
.	.	.	.	8e\	-to,	.	.
8C/	-to,	8G/	-to,	4r	.	8cc\	-to,
8r	.	8r	.	.	.	8r	.
4r	.	4d-\	pas-	4r	.	4dd-X\	pas-
!LO:LB:g=original	!	!LO:PB:g=original	!	!	!	!	!
=82	=82	=82	=82	=82	=82	=82	=82
4r	.	8.d-\L	-pa-	4r	.	8.dd-X\L	.
.	.	16c\Jk	.	.	.	16cc\Jk	.
4r	.	8.B-\L	.	4r	.	8.b-\L	.
.	.	16A-\Jk	.	.	.	16a-\Jk	.
4d-X\	pa[s]-	8.G/L	-sus	4dd-X\	pas-	8.g\L	-sus
.	.	16F/Jk	.	.	.	16f\Jk	.
!	!	!	!	!	!	!LO:LB:g=original	!
=83	=83	=83	=83	=83	=83	=83	=83
8.d-\L	.	4En/	est,	8.dd-\L	.	4e-/	est,
16c\Jk	.	.	.	16cc\Jk	.	.	.
8.B-\L	.	8.r	.	8.b-\L	.	8.r	.
16A-\Jk	.	16F/KL	pas-	16a-\Jk	.	16f/KL	pas-
8.G\L	-sus	8.G/	.	8.g\L	-sus	8.g/	.
16F\Jk	.	16A-/Jk	.	16f\Jk	.	16a-/Jk	.
!	!	!	!	!LO:LB:g=original	!	!	!
=84	=84	=84	=84	=84	=84	=84	=84
4En\	est,	8.B-\L	.	4en\	est,	2.b-\	.
.	.	16c\Jk	.	.	.	.	.
8.r	.	2c\	-sus,	8r	.	.	.
.	.	.	.	8e\L	pas-	.	.
16C/KL	pa[s]-	.	.	.	.	.	.
8.Dn/	.	.	.	8.f\	.	.	.
16E/Jk	-sus	.	.	16g\Jk	-sus	.	.
=85	=85	=85	=85	=85	=85	=85	=85
2F\	pas-	2c\	pas-	2f\	pas-	2b-\	-sus
4D-X\	-sus	4d-X\	-sus	4f\	-sus	4a-\	.
=86	=86	=86	=86	=86	=86	=86	=86
2BB-/	et	2d-\	et	2f\	et	2g\	et
4BBn/	se-	4dn\	se-	4f\	se-	4g\	se-
=87	=87	=87	=87	=87	=87	=87	=87
2C/	-pul-	2c\	-pul-	2f\	-pul-	2a-\	-pul-
8.C/L	-tus	8.B-\L	-tus	8.e-\L	-tus	8.g\L	-tus
16D-X/Jk	.	16A-\Jk	.	16f\Jk	.	16f\Jk	.
=88	=88	=88	=88	=88	=88	=88	=88
2D-\	est	2A-/	est	2f\	est,	2f/	est,
4D-\	se-	4G/	se-	8.A-X/L	se-	4f/	se-
.	.	.	.	16An/Jk	.	.	.
!	!	!LO:LB:g=original	!	!	!	!	!
=89	=89	=89	=89	=89	=89	=89	=89
2D-\	-pul-	2F/	-pul-	2B-X/	-pul-	2f/	-pul-
4D-\	-tus	4F/	-tus	4Bn/	-tus	4f/	-tus
=90	=90	=90	=90	=90	=90	=90	=90
!	!	!LO:TX:b:t=24.	!	!LO:TX:b:t=24.	!	!LO:TX:b:t=24.	!
!	!	!	!	!LO:N:vis=2	!	!	!
2.C;/	est.	2.G;/	est,	2.c;\	est.	2.en;/	est.
!LO:LB:g=original	!	!	!	!LO:LB:g=original	!	!LO:LB:g=original	!
=91||	=91||	=91||	=91||	=91||	=91||	=91||	=91||
*k[enandnb-]	*	*k[enandnb-]	*	*k[enandnb-]	*	*k[dnanenb-]	*
*F:	*	*F:	*	*F:	*	*F:	*
*M2/2	*	*M2/2	*	*M2/2	*	*M2/2	*
*met(c|)	*	*met(c|)	*	*met(c|)	*	*met(c|)	*
!LO:TX:a:t=P:problem=przy kluczu kasownik an oktawę wyżej	!	!	!	!	!	!LO:TX:a:t=P:problem=przy kluczu ddn an een b-	!
4C/	Et	4C/	Et	4c\	Et	4c/	Et
4D/	.	4D/	.	4d\	.	4d/	.
4E/	re-	4E/	re-	4e\	re-	4e/	re-
4C/	-sur-	4C/	-sur-	4c\	-sur-	4c/	-sur-
=92	=92	=92	=92	=92	=92	=92	=92
2G\	-re-	2G/	-re-	2g\	-re-	2g\	-re-
2G\	-xit	2G/	-xit	2g\	-xit	2g\	-xit
=93	=93	=93	=93	=93	=93	=93	=93
2G\	ter-	4G/	ter-	2g\	ter-	2g\	ter-
.	.	4B-\	.	.	.	.	.
4G\	-ti-	4c\	-ti-	4f#X\	-ti-	4a\	-ti-
4G\	-a	4e\	-a	4fn\	-a	4bn\	-a
=94	=94	=94	=94	=94	=94	=94	=94
1A	di-	1c	di-	2e\	di-	1cc	di-
.	.	.	.	2f#X\	.	.	.
=95	=95	=95	=95	=95	=95	=95	=95
2G\	-e	2d\	-e,	2g\	-e,	2bn\	-e
2F\	se-	2Bn\	se-	2g\	se-	2dd\	se-
=96	=96	=96	=96	=96	=96	=96	=96
2E\	-cun-	2G/	-cun-	2g\	-cun-	4dd\	-cun-
.	.	.	.	.	.	4cc\	-dum
!	!	!LO:LB:g=original	!	!	!	!	!
4E\	-dum	4G/	-dum	4g\	-dum	4bn\	.
4E\	scrip-	4G/	scrip-	4g\	scrip-	4cc\	scrip-
=97	=97	=97	=97	=97	=97	=97	=97
2D\	-tu-	2A/	-tu-	1f	-tu-	2cc\	-tu-
2G\	.	2G/	-ras,	.	.	2b-\	.
=98	=98	=98	=98	=98	=98	=98	=98
2C/	-ras,	2G/	et	2e\	-ras	2cc\	-ras,
!	!	!	!	!LO:LB:g=original	!	!LO:LB:g=original	!
4C/	et	4G/	et	4e\	et	4cc\	et
4C/	as-	4G/	as-	4e\	as-	4cc\	as-
!LO:PB:g=original	!	!	!	!	!	!	!
=99	=99	=99	=99	=99	=99	=99	=99
2C/	-scen-	4G/	-cen-	2e\	-cen-	2cc\	-cen-
.	.	4c\	.	.	.	.	.
4C/	-dit	4Bn\	-dit	4f\	-dit	4dd\	-dit
4C/	in	4B-X\	in	4g\	in	4ee\	in
=100	=100	=100	=100	=100	=100	=100	=100
1C	ce-	2A\	ce-	2f\	ce-	1ff	ce-
.	.	2Bn\	.	2d\	.	.	.
=101	=101	=101	=101	=101	=101	=101	=101
2C/	-lum,	2c\	-lum	2g\	-lum,	2ee\	-lum,
4A\	se-	4c\	se-	2e\	se-	2ee\	se-
4G\	.	4B-X\	.	.	.	.	.
=102	=102	=102	=102	=102	=102	=102	=102
2F\	-det	2A\	-det,	2f\	.	2ee\	.
2F\	ad	2A\	ad	4f\	-det,	4dd\	-det
.	.	.	.	4f\	ad	4dd\	ad
=103	=103	=103	=103	=103	=103	=103	=103
2G\	dex-	2G/	dex-	2e\	dex-	4dd\	dex-
.	.	.	.	.	.	4cc\	.
4G\	-te-	4G/	-te-	4e\	-te-	4bn\	-ter-
4G\	-ram	4G/	-ram	4e\	-ram	4cc\	-ram
!	!	!LO:LB:g=original	!	!	!	!	!
=104	=104	=104	=104	=104	=104	=104	=104
1GG	Pa-	2.G/	Pa-	1d	Pa-	2cc\	Pa-
.	.	.	.	.	.	2bn\	.
.	.	4F/	.	.	.	.	.
=105	=105	=105	=105	=105	=105	=105	=105
2C/	-tris,	2E/	-tris,	2c\	-tris,	2cc\	-tris,
2C/	et	2c\	et	2c\	et	2cc\	et
=106	=106	=106	=106	=106	=106	=106	=106
4C/	i-	4c\	i-	4c\	i-	4cc\	i-
4D/	-te-	4d\	-te-	4d\	-te-	4dd\	-te-
4E/	-rum	4e\	-rum	4e\	-rum	4ee\	-rum
4C/	ven-	4c\	ven-	4c\	ven-	4cc\	ven-
!LO:LB:g=original	!	!	!	!LO:LB:g=original	!	!LO:LB:g=original	!
=107	=107	=107	=107	=107	=107	=107	=107
4BBn/	-tu-	4Bn\	-tu-	4Bn/	-tu-	4bn\	-tu-
4C/	-rus	4c\	-rus	4c/	-rus	4cc\	-rus
4AA/	est	4A\	est	4A/	est	4a\	est
4BB/	cum	4B\	cum	4B/	cum	4b\	cum
=108	=108	=108	=108	=108	=108	=108	=108
4.AA/	glo-	4.c\	glo-	4.e\	glo-	4.cc\	glo-
8AA/	-ri-	8c\	-ri-	8e\	-ri-	8cc\	-ri-
2GG/	-a.	2Bn\	-a	2g\	-a	2dd\	-a
=109	=109	=109	=109	=109	=109	=109	=109
2.F\	ju-	2.A\	ju-	2.a\	ju-	2.dd\	ju-
4F\	-di-	4A\	-di-	4a\	-di-	4dd#X\	-di-
=110	=110	=110	=110	=110	=110	=110	=110
2E\	-ca-	2Bn\	-ca-	2g#X\	-ca-	2ee\	-ca-
2E\	-re	2B\	-re	2g#\	-re	2ee\	-re
=111	=111	=111	=111	=111	=111	=111	=111
2E\	vi-	2Bn\	vi-	2g#X\	vi-	2ee\	vi-
4E\	-vos	4B\	-vos	4g#\	-vos	4ee\	-vos
4Bn\	et	4B\	et	4bn\	et	4bn\	et
!	!	!LO:LB:g=original	!	!	!	!	!
=112	=112	=112	=112	=112	=112	=112	=112
4c\	mor-	4c\	mor-	4cc\	mor-	4cc\	mor-
4Bn\	.	4Bn\	.	4bn\	.	4bn\	.
4A\	.	4A\	.	4a\	.	4a\	.
8B\L	-tu-	8B\L	-tu-	8b\L	-tu-	8b\L	-tu-
8A\J	.	8A\J	.	8a\J	.	8a\J	.
=113	=113	=113	=113	=113	=113	=113	=113
2G#X\	-os,	2G#X/	-os,	2g#X\	-os,	2g#X\	-os
!	!	!	!	!LO:LB:g=original	!	!	!
4E\	cu-	4G#/	cu-	4e\	cu-	4ee\	cu-
4G#\	-jus	4Bn\	-jus	4d\	-jus	4dd\	-jus
!LO:LB:g=original	!	!	!	!	!	!LO:LB:g=original	!
=114	=114	=114	=114	=114	=114	=114	=114
2A\	re-	2c\	re-	2e\	re-	2cc\	re-
4G#X\	-gni	4Bn\	-gni	4e\	-gni	4dd\	-gni
4G#\	non	4B\	non	4e\	non	4dd\	non
=115	=115	=115	=115	=115	=115	=115	=115
2A\	e-	2c\	e-	2e\	e-	2cc\	e-
2D\	-rit	2d\	-rit	2f\	-rit	2bn\	-rit
=116	=116	=116	=116	=116	=116	=116	=116
1E	fi-	2c\	fi-	2.e\	fi-	2a\	fi-
.	.	2Bn\	.	.	.	2g#X\	.
.	.	.	.	4d\	.	.	.
=117	=117	=117	=117	=117	=117	=117	=117
2A\	-nis,	2A\	-nis,	2c\	-nis,	2a\	-nis,
2F\	et	4A/	et	2f\	et	2r	.
.	.	4G/	.	.	.	.	.
=118	=118	=118	=118	=118	=118	=118	=118
!	!	!	!	!	!	!LO:TX:a:t=2	!
4F\	vi-	4A\	vi-	4f\	vi-	0r	.
4G\	.	4B-X\	.	4e\	.	.	.
4A\	-tam	2c\	-tam	4f\	-tam	.	.
4F\	ven-	.	.	8g\L	ven-	.	.
.	.	.	.	8a\J	.	.	.
!	!	!LO:LB:g=original	!	!	!	!	!
=119	=119	=119	=119	=119	=119	=119	=119
4E\	-tu-	4c\	vi-	4g\	-tu-	.	.
4F\	-ri	4A\	.	2f\	.	.	.
4D\	se-	4B-\	-tam	.	.	.	.
4E\	-cu-	4G/	ven-	4g\	-ri	.	.
=120	=120	=120	=120	=120	=120	=120	=120
4F\	-li	4A\	-tu-	4f\	se-	2r	.
8G\L	a-	8B-\L	.	8e\L	-cu-	.	.
8F\J	.	8A\J	.	8f\J	.	.	.
4E\	.	4G/	.	4g\	-li,	2cc\	Et
4D\	-men	4F/	-ri	4r	.	.	.
!LO:LB:g=original	!	!	!	!LO:LB:g=original	!	!	!
=121	=121	=121	=121	=121	=121	=121	=121
4C/	a-	4E/	se-	2r	.	4cc\	vi-
4BBn/	.	8G/L	.	.	.	4dd\	.
.	.	8F/J	.	.	.	.	.
4C/	.	4E/	.	2g\	a-	4ee\	-tam
8D\L	.	8F/L	-cu-	.	.	4cc\	ven-
8E\J	.	8G/J	-li	.	.	.	.
=122	=122	=122	=122	=122	=122	=122	=122
4D/	-men	4F/	a-	2g\	.	4bn\	-tu-
4C/	a-	4E/	-men	.	.	4cc\	-ri
4F\	.	4A/	a-	2f\	-men	4a\	se-
4D\	-men	8F/L	.	.	.	4b\	-cu-
.	.	8G/J	.	.	.	.	.
=123	=123	=123	=123	=123	=123	=123	=123
2.C/	a-	2G/	-men,	2.e\	a-	4cc\	-li,
.	.	.	.	.	.	4b-X\	a-
.	.	2r	.	.	.	4a\	.
8D/L	.	.	.	8f\L	.	4g\	.
8E/J	.	.	.	8g\J	.	.	.
!	!	!	!	!	!	!LO:LB:g=original	!
=124	=124	=124	=124	=124	=124	=124	=124
4F\	-men	2r	.	2f\	-men,	4a\	.
4G\	a-	.	.	.	.	4b-\	.
4A\	.	2f\	a-	4r	.	2cc\	-men
4F\	.	.	.	4a\	a-	.	.
=125	=125	=125	=125	=125	=125	=125	=125
4E\	.	4g\	.	4b-\	.	2cc\	a-
4F\	.	2f\	.	2a\	.	.	.
4D\	.	.	.	.	.	2b-\	.
4E\	.	4e\	-men	4g\	.	.	.
!	!	!LO:LB:g=original	!	!	!	!	!
=126	=126	=126	=126	=126	=126	=126	=126
4C/	.	4e\	a-	4g\	.	2a\	.
4D/	.	2d\	.	2f\	.	.	.
4BB-/	.	.	.	.	.	2g\	.
4C/	.	8c\L	-men	4e\	.	.	.
.	.	8B-\J	.	.	.	.	.
!LO:LB:g=original	!	!	!	!	!	!	!
=127	=127	=127	=127	=127	=127	=127	=127
2D/	.	2A\	a-	1f	-men,	2f/	-men,
2BB-/	-men	2B-\	-men	.	.	2dd\	a-
=128	=128	=128	=128	=128	=128	=128	=128
2.C/	a-	2A\	a-	2f\	a-	1cc	.
.	.	2G/	.	4e\	.	.	.
8D\L	.	.	.	8f\L	.	.	.
8E\J	.	.	.	8g\J	.	.	.
!	!	!	!	!LO:LB:g=original	!	!	!
=129	=129	=129	=129	=129	=129	=129	=129
4F\	-men	4A\	.	2f\	-men	2cc\	-men
4G\	a-	4B-\	.	.	.	.	.
4A\	.	2c\	-men	4r	.	2ff\	a-
4F\	-men	.	.	4a\	a-	.	.
!	!	!	!	!	!	!LO:LB:g=original	!
=130	=130	=130	=130	=130	=130	=130	=130
!	!	!	!	!	!	!LO:TX:t=P:problem=dwa wykreślone takty	!
2F\	a-	4A\	a-	2f\	-men	4ff 4f/	-men,
.	.	4f\	.	.	.	4f/	a-
2F\	-men	4e\	.	2r	.	4g\	.
.	.	4e-X\	.	.	.	4a\	-men
=131	=131	=131	=131	=131	=131	=131	=131
2BB-/	a-	1d	-a-	2r	.	1b-X	a-
2D\	.	.	.	2B-/	a-	.	.
=132	=132	=132	=132	=132	=132	=132	=132
1F	.	2.d\	.	2.d\	.	2.b-\	.
.	.	4c\	.	4f\	.	4a\	.
=133	=133	=133	=133	=133	=133	=133	=133
0F	-men.	0c	-men.	0f	-men.	0a	-men.
=134	=134	=134	=134	=134	=134	=134	=134
!	!	!LO:TX:b:t=44.	!	!LO:TX:a:t=44.	!	!LO:TX:b:t=44.	!
==	==	==	==	==	==	==	==
*-	*-	*-	*-	*-	*-	*-	*-
!!!system-decoration: [(s1,s2,s3,s4)]
!!!ENC: Marta Lawrence
!!!END: 2021-01-17
!!!ENC: Mateusz Solarz
!!!END: 2021-01-15
